icons/remove-linkchart-24.svg

<?xml version="1.0" encoding="UTF-8"?><svg id="icons" xmlns="http://www.w3.org/2000/svg" viewBox="0 0 24 24"><defs><style>.cls-1{fill:none;}</style></defs><path d="M6.70715,18l4.14642,4.14648-.70715,.70709-4.14642-4.14648L1.85352,22.85352l-.70715-.70709,4.14648-4.14642L1.14642,13.85352l.70715-.70715,4.14642,4.14648,4.14648-4.14642,.70709,.70715-4.14642,4.14642Zm13.79285-7c-1.20721,0-2.2171-.86005-2.4494-2h-6.1012c-.03662,.17981-.09583,.35052-.16888,.51416l3.02386,2.15991c.44647-.41479,1.03961-.67407,1.69562-.67407,3.3068,0,3.3068,5,0,5-1.37842,0-2.5-1.12109-2.5-2.5,0-.36169,.08075-.70349,.21948-1.01416l-3.02386-2.15991c-.44647,.41479-1.03961,.67407-1.69562,.67407-1.37842,0-2.5-1.12109-2.5-2.5s1.12158-2.5,2.5-2.5c.65601,0,1.24915,.25928,1.69562,.67407l3.02386-2.15991c-.13873-.31067-.21948-.65247-.21948-1.01416,0-1.37891,1.12158-2.5,2.5-2.5,3.3068,0,3.3068,5,0,5-.65601,0-1.24915-.25928-1.69562-.67407l-3.02386,2.15991c.07306,.16364,.13226,.33435,.16888,.51416h6.1012c.2323-1.13995,1.24219-2,2.4494-2,3.3068,0,3.3068,5,0,5Zm-5.5-7c0,.55225,.44769,1,1,1h1c.55231,0,1-.44775,1-1v-1c0-.55231-.44769-1-1-1h-1c-.55231,0-1,.44769-1,1v1Zm0,10c0,.55225,.44769,1,1,1h1c.55231,0,1-.44775,1-1v-1c0-.55231-.44769-1-1-1h-1c-.55231,0-1,.44769-1,1v1Zm-4-5v-1c0-.55231-.44769-1-1-1h-1c-.55231,0-1,.44769-1,1v1c0,.55225,.44769,1,1,1h1c.55231,0,1-.44775,1-1Zm11-1c0-.55231-.44769-1-1-1h-1c-.55231,0-1,.44769-1,1v1c0,.55225,.44769,1,1,1h1c.55231,0,1-.44775,1-1v-1Z"/><rect class="cls-1" width="24" height="24"/></svg>

<svg xmlns="http://www.w3.org/2000/svg" viewBox="0 0 24 24"><path d="M6.707 18l4.147 4.146-.708.708L6 18.707l-4.146 4.147-.708-.708L5.293 18l-4.147-4.146.708-.708L6 17.293l4.146-4.147.708.708L6.707 18zM20.5 11a2.504 2.504 0 0 1-2.45-2h-6.1a2.47 2.47 0 0 1-.17.514l3.024 2.16A2.484 2.484 0 0 1 16.5 11c3.307 0 3.307 5 0 5a2.503 2.503 0 0 1-2.5-2.5c0-.362.08-.703.22-1.014l-3.024-2.16A2.484 2.484 0 0 1 9.5 11C8.122 11 7 9.879 7 8.5S8.122 6 9.5 6c.656 0 1.25.26 1.696.674l3.023-2.16A2.479 2.479 0 0 1 14 3.5C14 2.121 15.122 1 16.5 1c3.307 0 3.307 5 0 5-.656 0-1.25-.26-1.696-.674l-3.023 2.16c.073.163.132.334.168.514h6.102c.232-1.14 1.242-2 2.449-2 3.307 0 3.307 5 0 5zM15 4a1 1 0 0 0 1 1h1a1 1 0 0 0 1-1V3a1 1 0 0 0-1-1h-1a1 1 0 0 0-1 1v1zm0 10a1 1 0 0 0 1 1h1a1 1 0 0 0 1-1v-1a1 1 0 0 0-1-1h-1a1 1 0 0 0-1 1v1zm-4-5V8a1 1 0 0 0-1-1H9a1 1 0 0 0-1 1v1a1 1 0 0 0 1 1h1a1 1 0 0 0 1-1zm11-1a1 1 0 0 0-1-1h-1a1 1 0 0 0-1 1v1a1 1 0 0 0 1 1h1a1 1 0 0 0 1-1V8z"/><path fill="none" d="M0 0h24v24H0z"/></svg>
